X:197
T: Freilach (Russian)
O:klezmer
M: 2/4
L: 1/8
K: Am
|: "Am"A2 EA | EA EA | c2 Ac | Ac Ac \
| e2 ce | "Dm"d2 Bd |1 "Am"c2 Ac | "E7"B2 e2 :|2 "E7"c2 BA | "Am"A4 |]
[| "Am"ze fg | fe dc | ze fg | fe dc | ze fg | "A7"ag fe | "Dm"d2 fe | d4 |
| "G7"zd ef | gf ed | "C"c2 ed | c3 c | cG Gc | "Bb/Gm"c_B BA | "Am"A4- | A4 |]
P: in Dm
K: Dm
|: "Dm"d2 Ad | Ad Ad | f2 df | df df \
| a2 fa | "Gm"g2 eg |1 "Dm"f2 df | "A7"e2 a2 :|2 "A7"f2 ed | "Dm"d4 |]
[| "Dm"za bc' | ba gf | za bc' | ba gf | za bc' | "D7"d'c' ba | "Gm"g2 ba | g4 |
| "C7"zg ab | c'b ag | "F"f2 ag | f3 f | fc cf | "Eb/Cm"f_e ed | "Dm"d4- | d4 |]





